src/22/actions/draw-freehand.svg

<svg xmlns="http://www.w3.org/2000/svg" viewBox="0 0 22 22">
  <defs id="defs3051">
    <style type="text/css" id="current-color-scheme">
      .ColorScheme-Text {
        color:#5d656b;
      }
      </style>
  </defs>
 <path 
    style="fill:currentColor;fill-opacity:1;stroke:none" 
	d="M 12.001953 3 L 4.6582031 10.3125 L 3.2519531 11.75 L 3.0019531 12 L 3.0019531 16 L 4.0019531 16 L 6.0019531 16 L 7.0019531 16 L 7.2519531 15.75 L 7.6269531 15.40625 L 8.3144531 14.6875 L 8.6894531 14.34375 L 15 8 L 16 7 L 12.001953 3 z M 11.408203 5 L 14 7.59375 L 9.7207031 11.84375 L 7.1582031 9.25 L 11.408203 5 z M 6.4394531 9.96875 L 9.0332031 12.5625 L 8.3144531 13.28125 L 5.7207031 10.6875 L 6.0019531 10.40625 L 6.4394531 9.96875 z M 5.0332031 11.375 L 7.6269531 13.96875 L 6.9082031 14.6875 L 4.3144531 12.09375 L 5.0332031 11.375 z M 16.498047 14 C 16.236387 14.0001 15.543567 14.046 14.435547 14.5625 C 14.089167 14.7241 13.80184 14.907 13.40625 15.125 C 13.19507 15.2414 12.43802 15.6193 12.15625 15.75 C 11.33058 16.1332 11.0562 16.2299 10.34375 16.5 C 9.65424 16.7615 8.9106 16.9987 8.40625 17.1875 C 6.28335 17.9823 3 18 3 18 L 3 19 C 3 19 6.32741 19.032 8.75 18.125 C 9.07135 18.0047 9.63148 17.8074 10.15625 17.625 C 10.96327 17.33064 11.83545 16.96826 12.5625 16.65625 C 12.86715 16.51485 13.573417 16.1652 13.873047 16 C 14.313257 15.7574 14.606857 15.57825 14.841797 15.46875 C 15.355167 15.16635 15.925197 14.9864 16.498047 15 C 16.453247 15.0002 16.671837 15.00105 16.873047 15.09375 C 17.074257 15.17775 17.297827 15.32735 17.466797 15.46875 C 17.794117 15.80065 17.931417 16.0539 17.998047 16.5 C 17.972347 17.182 17.737407 17.39575 17.248047 17.78125 C 16.924207 17.99579 16.46827 18.034846 16 18.003906 L 16 18.972656 C 16.78372 18.974656 17.411047 18.81831 17.779297 18.625 C 18.616007 18.1478 19.027267 17.28855 18.998047 16.46875 C 18.993047 16.18085 18.920827 15.9437 18.779297 15.625 C 18.637717 15.3064 18.435267 14.9489 18.123047 14.6875 C 17.641187 14.2643 17.399387 14.0781 16.498047 14 z "
    class="ColorScheme-Text"
    />  
</svg>

<svg xmlns="http://www.w3.org/2000/svg" viewBox="0 0 22 22"><path d="M12.002 3l-7.344 7.313-1.406 1.437-.25.25v4h4l.25-.25.375-.344.687-.719.375-.343L15 8l1-1-3.998-4zm-.594 2L14 7.594l-4.28 4.25L7.159 9.25 11.408 5zM6.44 9.969l2.594 2.594-.719.718-2.593-2.594.281-.28.437-.438zm-1.406 1.406l2.594 2.594-.719.719-2.594-2.594.72-.719zM16.498 14c-.262 0-.954.046-2.062.563-.347.161-.634.344-1.03.562-.21.116-.968.494-1.25.625-.825.383-1.1.48-1.812.75-.69.262-1.433.499-1.938.688C6.283 17.982 3 18 3 18v1s3.327.032 5.75-.875c.321-.12.881-.318 1.406-.5.807-.294 1.68-.657 2.406-.969.305-.141 1.011-.49 1.311-.656.44-.243.734-.422.969-.531.513-.303 1.083-.483 1.656-.469-.045 0 .174.001.375.094.201.084.425.233.594.375.327.332.464.585.531 1.031-.026.682-.26.896-.75 1.281-.324.215-.78.254-1.248.223v.969c.784.002 1.411-.155 1.78-.348a2.387 2.387 0 0 0 1.218-2.156c-.005-.288-.077-.525-.219-.844-.141-.319-.344-.676-.656-.938-.482-.423-.724-.609-1.625-.687z" fill="currentColor" color="#5d656b"/></svg>
